X:37
T: SCHOENSTER SCHATZ MEIN ENGEL
N: E0649A
O: Europa, Mitteleuropa, Deutschland, Hessen, Odenwald
R: Liebes - Lied
M: 3/4
L: 1/16
K: Eb
E4 | E3GB4e2c2 | B2G2B2
B2B2B2 | c2B2A4G4 | F8
B4 | G3FE4F2c2 | B4G2
G2G2G2 | B6A2F4 | E8

@@@ Tune index: 4350
